src/lib/packages/icons/src/assets/filled/bolt-slash.svg

<svg width="24" height="24" viewBox="0 0 24 24" fill="none" xmlns="http://www.w3.org/2000/svg">
<path d="M19.506 9.99299C19.511 10.393 19.354 10.773 19.064 11.063L8.764 21.353C8.667 21.45 8.539 21.499 8.41 21.499C8.319 21.499 8.22704 21.474 8.14504 21.423C7.94804 21.3 7.86204 21.057 7.93704 20.837L8.67703 18.687C8.70103 18.615 8.74204 18.55 8.79604 18.496L18.346 8.94599C18.538 8.75499 18.8471 8.75099 19.0431 8.93699C19.3321 9.20899 19.5 9.59499 19.506 9.99299ZM21.5301 2.46999C21.2371 2.17699 20.762 2.17699 20.469 2.46999L15.7281 7.21099L16.859 4.60099C17.059 4.13099 17.009 3.601 16.729 3.171C16.449 2.751 15.979 2.501 15.479 2.501H11C10.15 2.501 9.46003 3.03099 9.19003 3.85099L6.57003 10.531C6.43003 10.991 6.51 11.491 6.79 11.881C7.08 12.281 7.52002 12.501 8.00002 12.501L10.492 12.448L2.46902 20.471C2.17602 20.764 2.17602 21.239 2.46902 21.532C2.61502 21.678 2.80705 21.752 2.99905 21.752C3.19105 21.752 3.38302 21.679 3.52902 21.532L21.529 3.53199C21.823 3.23799 21.8231 2.76199 21.5301 2.46999Z" fill="currentColor"/>
</svg>

<svg xmlns="http://www.w3.org/2000/svg" width="24" height="24" fill="none"><path fill="currentColor" d="M19.506 9.993c.005.4-.152.78-.442 1.07l-10.3 10.29a.499.499 0 0 1-.619.07.5.5 0 0 1-.208-.586l.74-2.15a.49.49 0 0 1 .119-.191l9.55-9.55a.5.5 0 0 1 .697-.009c.29.272.457.658.463 1.056ZM21.53 2.47a.75.75 0 0 0-1.061 0l-4.74 4.741 1.13-2.61a1.503 1.503 0 0 0-1.38-2.1H11c-.85 0-1.54.53-1.81 1.35l-2.62 6.68c-.14.46-.06.96.22 1.35.29.4.73.62 1.21.62l2.492-.053-8.023 8.023a.75.75 0 0 0 1.06 1.061l18-18a.75.75 0 0 0 .001-1.062Z"/></svg>
